X: 618
U:~=!turn!
M:C
L:1/8
K:Gm
f |\
e/d/c/B/ f>B g>Bf>c | d<gg>a {ga}b>ag>f | e/d/c/B/ f>B g>Bf<b | f<dd>c d<gg>b |
d<bc<a B<gA<f | G<BA<B F<BD>C | B,>CD<E F>ED>d | B<G A>^F GG,G, |]


